icons/desktop-outline.svg

<svg width="24" height="24" viewBox="0 0 24 24" fill="none" xmlns="http://www.w3.org/2000/svg">
<path fill-rule="evenodd" clip-rule="evenodd" d="M15 18.0071L16 20.0041H17C17.667 20.0041 18 20.3361 18 21.0021C18 21.6671 17.667 22.0001 17 22.0001H7C6.333 22.0001 6 21.6671 6 21.0021C6 20.3361 6.333 20.0041 7 20.0041H8L9 18.0071H4.014C2.671 18.0071 2 17.3421 2 16.0101V4.0331C2 2.7111 2.667 2.0461 4 2.0371C5.25 2.0271 10.596 1.9601 20.04 2.0351C21.347 2.0451 22 2.7111 22 4.0331V16.0101C22 17.3401 21.333 18.0061 20 18.0061H15V18.0071ZM4 4.0331V12.0181H20V4.0331H4ZM4 14.0151V16.0111H20V14.0151H4ZM11 18.0071L10 20.0041H14L13 18.0071H11Z" fill="#3A3A47"/>
</svg>

<svg xmlns="http://www.w3.org/2000/svg" width="24" height="24" viewBox="0 0 24 24">
    <path fill="#3A3A47" fill-rule="evenodd" d="M20.04 2.035c1.307.01 1.96.676 1.96 1.998V16.01c0 1.33-.667 1.996-2 1.996h-5l1 1.997h1c.667 0 1 .332 1 .998 0 .665-.333.998-1 .998H7c-.667 0-1-.333-1-.998 0-.666.333-.998 1-.998h1l1-1.997H4.014C2.671 18.007 2 17.342 2 16.01V4.033c0-1.322.667-1.987 2-1.996 1.25-.01 6.596-.077 16.04-.002zM13 18.007h-2l-1 1.997h4l-1-1.997zm7-3.992H4v1.996h16v-1.996zm0-9.982H4v7.985h16V4.033z"/>
</svg>
